X: 28809
T: My Mind Will Never Be Easy
R: slip jig
M: 9/8
K: Dmajor
B3 B<AF E<DE|F>AA A>BF B>Ad|B>AF F>GA E<DE|F>BB B>cA B2c|
B<AF B>FA E<DE|F>AD A>BF c2d|B>AF F>GA E<Dz|F>BB B>cA B2z|
A>Bc d>ed c>BA|F>AA A>BF B<A-A|A>Bc d>ed c>BA|F>BB B>cA B2z|
A>Bc d>ef c>de|F>GA dAF Ade|B>AF F>AB E<D-D|F>BB Bcd f3||

